Newaita-dark/actions/24/view-sort-ascending.svg

<svg height="24" viewBox="0 0 24 24" width="24" xmlns="http://www.w3.org/2000/svg"><g fill="#e0e0e0"><path d="m4.464844 2.171875c-1.375 0-2.480469 1.105469-2.480469 2.480469s1.105469 2.480468 2.480469 2.480468 2.480468-1.105468 2.480468-2.480468-1.105468-2.480469-2.480468-2.480469zm0 0" fill-opacity=".392157"/><path d="m21.335938 5.644531h-12.40625c-.273438 0-.496094-.222656-.496094-.496093v-.992188c0-.273438.222656-.496094.496094-.496094h12.40625c.273437 0 .496093.222656.496093.496094v.992188c0 .273437-.222656.496093-.496093.496093zm0 0"/><path d="m21.335938 13.085938h-12.40625c-.273438 0-.496094-.222657-.496094-.496094v-.992188c0-.273437.222656-.496094.496094-.496094h12.40625c.273437 0 .496093.222657.496093.496094v.992188c0 .273437-.222656.496094-.496093.496094zm0 0"/><path d="m21.335938 20.53125h-12.40625c-.273438 0-.496094-.222656-.496094-.5v-.992188c0-.273437.222656-.496093.496094-.496093h12.40625c.273437 0 .496093.222656.496093.496093v.992188c0 .277344-.222656.5-.496093.5zm0 0"/><path d="m4.464844 9.613281c-1.375 0-2.480469 1.105469-2.480469 2.480469s1.105469 2.480469 2.480469 2.480469 2.480468-1.105469 2.480468-2.480469-1.105468-2.480469-2.480468-2.480469zm0 0" fill-opacity=".392157"/><path d="m4.464844 17.054688c-1.375 0-2.480469 1.109374-2.480469 2.480468 0 1.375 1.105469 2.484375 2.480469 2.484375s2.480468-1.109375 2.480468-2.484375c0-1.371094-1.105468-2.480468-2.480468-2.480468zm0 0"/></g></svg>

<svg xmlns="http://www.w3.org/2000/svg" xmlns:xlink="http://www.w3.org/1999/xlink" width="24px" height="24px" viewBox="0 0 24 24" version="1.1">
<g id="surface1">
<path style=" stroke:none;fill-rule:nonzero;fill:rgb(87.843138%,87.843138%,87.843138%);fill-opacity:0.392157;" d="M 4.464844 2.171875 C 3.089844 2.171875 1.984375 3.277344 1.984375 4.652344 C 1.984375 6.027344 3.089844 7.132812 4.464844 7.132812 C 5.839844 7.132812 6.945312 6.027344 6.945312 4.652344 C 6.945312 3.277344 5.839844 2.171875 4.464844 2.171875 Z M 4.464844 2.171875 "/>
     <defs>
  <style id="current-color-scheme" type="text/css">
   .ColorScheme-Text { color:#eeeeee; } .ColorScheme-Highlight { color:#424242; }
  </style>
 </defs>
<path style="fill:currentColor" class="ColorScheme-Text" d="M 21.335938 5.644531 L 8.929688 5.644531 C 8.65625 5.644531 8.433594 5.421875 8.433594 5.148438 L 8.433594 4.15625 C 8.433594 3.882812 8.65625 3.660156 8.929688 3.660156 L 21.335938 3.660156 C 21.609375 3.660156 21.832031 3.882812 21.832031 4.15625 L 21.832031 5.148438 C 21.832031 5.421875 21.609375 5.644531 21.335938 5.644531 Z M 21.335938 5.644531 "/>
     <defs>
  <style id="current-color-scheme" type="text/css">
   .ColorScheme-Text { color:#eeeeee; } .ColorScheme-Highlight { color:#424242; }
  </style>
 </defs>
<path style="fill:currentColor" class="ColorScheme-Text" d="M 21.335938 13.085938 L 8.929688 13.085938 C 8.65625 13.085938 8.433594 12.863281 8.433594 12.589844 L 8.433594 11.597656 C 8.433594 11.324219 8.65625 11.101562 8.929688 11.101562 L 21.335938 11.101562 C 21.609375 11.101562 21.832031 11.324219 21.832031 11.597656 L 21.832031 12.589844 C 21.832031 12.863281 21.609375 13.085938 21.335938 13.085938 Z M 21.335938 13.085938 "/>
     <defs>
  <style id="current-color-scheme" type="text/css">
   .ColorScheme-Text { color:#eeeeee; } .ColorScheme-Highlight { color:#424242; }
  </style>
 </defs>
<path style="fill:currentColor" class="ColorScheme-Text" d="M 21.335938 20.53125 L 8.929688 20.53125 C 8.65625 20.53125 8.433594 20.308594 8.433594 20.03125 L 8.433594 19.039062 C 8.433594 18.765625 8.65625 18.542969 8.929688 18.542969 L 21.335938 18.542969 C 21.609375 18.542969 21.832031 18.765625 21.832031 19.039062 L 21.832031 20.03125 C 21.832031 20.308594 21.609375 20.53125 21.335938 20.53125 Z M 21.335938 20.53125 "/>
<path style=" stroke:none;fill-rule:nonzero;fill:rgb(87.843138%,87.843138%,87.843138%);fill-opacity:0.392157;" d="M 4.464844 9.613281 C 3.089844 9.613281 1.984375 10.71875 1.984375 12.09375 C 1.984375 13.46875 3.089844 14.574219 4.464844 14.574219 C 5.839844 14.574219 6.945312 13.46875 6.945312 12.09375 C 6.945312 10.71875 5.839844 9.613281 4.464844 9.613281 Z M 4.464844 9.613281 "/>
     <defs>
  <style id="current-color-scheme" type="text/css">
   .ColorScheme-Text { color:#eeeeee; } .ColorScheme-Highlight { color:#424242; }
  </style>
 </defs>
<path style="fill:currentColor" class="ColorScheme-Text" d="M 4.464844 17.054688 C 3.089844 17.054688 1.984375 18.164062 1.984375 19.535156 C 1.984375 20.910156 3.089844 22.019531 4.464844 22.019531 C 5.839844 22.019531 6.945312 20.910156 6.945312 19.535156 C 6.945312 18.164062 5.839844 17.054688 4.464844 17.054688 Z M 4.464844 17.054688 "/>
</g>
</svg>
